<?xml version="1.0" encoding="UTF-8"?>
<map version="1.10" tiledversion="1.12.2" orientation="orthogonal" renderorder="right-down" width="32" height="32" tilewidth="16" tileheight="16" infinite="0" nextlayerid="7" nextobjectid="8">
 <tileset firstgid="1" source="OVERWRLD.tsx"/>
 <layer id="1" name="BL1" width="32" height="32">
  <data encoding="csv">
124,125,126,127,128,73,72,73,72,73,72,73,55,33,65,17,49,58,72,73,72,73,72,73,72,73,72,73,72,73,72,73,
140,141,142,143,144,89,88,89,88,89,88,89,71,55,33,97,58,74,88,89,88,89,88,89,88,89,88,89,88,89,88,89,
156,157,158,159,160,105,104,105,104,105,104,105,87,71,72,73,74,90,104,105,104,105,104,105,104,105,104,105,104,105,104,105,
172,173,174,175,176,121,120,121,120,121,120,121,103,87,88,89,90,106,120,121,120,121,120,121,200,201,200,201,200,201,200,201,
188,189,190,191,192,17,98,81,33,115,17,99,119,103,104,105,106,122,33,65,17,49,81,123,24,25,24,25,24,25,24,25,
33,2,3,84,3,3,4,17,49,81,33,65,49,119,120,121,122,49,99,81,33,65,17,217,40,41,40,41,40,41,40,41,
17,83,19,53,19,19,82,81,33,65,17,49,81,33,115,17,49,81,33,65,17,49,81,217,24,25,24,25,24,25,24,25,
33,18,21,19,69,19,20,97,117,81,33,65,17,49,81,33,65,17,49,81,33,97,17,123,40,41,40,41,40,41,40,41,
17,34,35,35,85,35,36,81,33,65,17,49,81,33,98,17,101,81,33,65,98,49,81,217,24,25,24,25,24,25,24,25,
33,65,17,49,81,33,65,17,49,81,33,65,17,97,81,33,65,17,49,81,33,65,17,217,40,41,40,41,40,41,40,41,
17,49,81,33,65,17,49,99,33,65,17,49,81,33,65,17,49,81,33,65,17,49,218,219,24,25,24,25,24,25,24,25,
33,65,17,49,81,33,65,17,49,81,100,65,17,49,81,33,65,17,49,81,58,140,234,235,40,41,40,41,40,41,40,41,
17,49,81,33,65,17,49,81,33,65,17,49,81,33,65,17,49,81,97,65,203,249,250,41,24,25,24,25,24,25,24,25,
33,65,101,49,81,97,65,17,49,81,33,65,17,49,99,33,65,17,49,81,217,25,24,25,40,41,40,41,40,41,40,41,
17,49,81,33,65,17,49,81,33,65,17,49,81,33,65,17,49,81,33,65,203,41,40,41,24,25,24,25,24,25,24,25,
33,65,115,49,81,33,65,17,49,81,33,65,17,49,81,101,65,17,49,81,217,25,24,25,40,41,40,41,40,41,40,41,
17,49,81,33,101,17,98,81,33,65,17,49,97,33,65,17,49,81,33,65,203,41,40,41,24,25,24,25,24,25,24,25,
33,65,17,49,81,33,65,17,49,81,100,65,17,49,81,33,65,17,49,81,217,25,24,25,40,41,40,41,40,41,40,41,
17,49,81,33,65,17,49,81,33,65,17,49,81,33,65,99,49,81,33,97,26,49,101,33,98,17,49,81,97,65,17,49,
33,65,17,49,97,33,65,17,49,81,94,65,17,49,81,33,65,17,49,81,33,65,17,49,81,33,65,17,49,81,33,65,
17,49,81,33,65,17,49,81,33,109,110,111,81,33,65,17,49,81,33,65,17,49,81,33,65,17,49,81,33,65,17,49,
33,116,17,49,81,33,65,17,49,81,33,65,17,49,81,33,65,17,49,81,115,65,17,49,81,33,65,17,49,81,33,65,
17,49,81,33,65,17,115,81,33,65,97,49,81,33,98,17,49,81,33,65,17,49,81,33,65,17,49,81,101,65,17,49,
33,65,17,99,81,33,65,17,49,81,33,65,17,49,81,33,65,17,49,97,33,65,17,49,97,33,65,17,49,81,33,65,
17,49,81,33,65,17,49,81,33,65,17,49,81,33,65,17,49,81,33,65,17,49,81,33,65,17,49,81,33,65,17,49,
33,65,17,49,117,33,65,17,49,100,33,65,17,115,81,33,65,17,49,81,33,65,17,49,100,33,65,17,49,98,33,65,
17,49,101,33,65,97,49,81,33,65,17,49,81,33,65,17,49,101,33,65,17,49,94,33,65,17,49,81,33,65,17,49,
33,65,17,49,81,33,65,17,98,81,33,65,17,49,81,33,65,17,49,81,33,109,110,111,81,33,65,17,49,81,33,65,
17,49,81,33,65,17,49,81,33,65,17,49,81,33,65,17,49,81,33,65,17,49,81,33,65,17,49,81,97,232,233,49,
40,41,40,41,40,41,65,17,49,81,33,65,17,115,81,33,97,17,49,81,33,98,17,49,81,101,65,17,234,248,249,65,
24,25,24,25,24,25,24,99,231,232,233,232,233,232,233,232,233,232,233,232,233,232,233,232,233,232,233,234,250,65,17,49,
40,41,40,41,40,41,40,41,247,248,249,248,249,248,249,248,249,248,249,248,249,248,249,248,249,248,249,250,49,81,33,65
</data>
 </layer>
 <layer id="3" name="BL2" width="32" height="32">
  <data encoding="csv">
0,0,0,0,0,0,0,0,0,0,0,0,0,0,0,0,0,0,0,0,0,0,0,0,0,0,0,0,0,0,0,0,
0,0,0,0,0,0,0,0,0,0,0,0,0,0,0,0,0,0,0,0,0,0,0,0,0,0,0,0,0,0,0,0,
0,0,0,0,0,0,0,0,0,0,0,0,0,0,0,0,0,0,0,0,0,0,0,0,0,0,0,0,0,0,0,0,
0,0,0,0,0,0,0,0,0,0,0,0,0,0,0,0,0,0,0,0,0,0,0,0,0,0,0,0,0,0,0,0,
0,0,0,0,0,0,0,0,0,0,0,0,0,0,0,0,0,0,0,0,0,0,0,0,0,0,0,0,0,0,0,0,
0,0,0,0,0,0,0,0,0,0,0,0,0,0,0,0,0,0,0,0,0,0,0,0,0,0,0,0,236,0,0,0,
0,0,0,0,0,0,0,0,0,0,0,0,0,0,0,0,0,0,0,0,0,0,0,0,204,0,0,0,0,0,0,0,
0,0,0,0,0,0,0,0,0,0,0,0,0,0,0,0,0,0,0,0,0,0,0,0,220,0,0,0,0,0,0,0,
0,0,0,0,0,0,0,0,0,0,0,0,0,0,0,0,0,0,0,0,0,0,0,0,236,0,0,0,0,0,236,0,
0,0,0,0,0,0,0,0,0,0,0,0,0,0,0,0,0,0,0,0,0,0,0,0,0,0,0,0,0,0,0,0,
0,0,0,0,0,0,0,0,0,0,0,0,0,0,0,0,0,0,0,0,0,0,0,0,0,0,0,0,0,0,0,0,
0,0,0,0,0,0,0,0,0,0,0,0,0,0,0,0,0,0,0,0,0,0,0,0,0,0,0,0,0,0,0,0,
0,0,0,0,0,0,0,0,0,0,0,0,0,0,0,0,0,0,0,0,0,0,0,0,0,0,0,236,0,0,0,0,
0,0,0,0,0,0,0,0,0,0,0,0,0,0,0,0,0,0,0,0,0,204,0,0,0,0,0,0,0,0,0,0,
0,0,0,0,0,0,0,0,0,0,0,0,0,0,0,0,0,0,0,0,0,220,0,0,0,0,0,0,0,0,0,0,
0,0,0,0,0,0,0,0,0,0,0,0,0,0,0,0,0,0,0,0,0,236,0,0,0,0,0,0,0,0,0,0,
0,0,0,0,0,0,0,0,0,0,0,0,0,0,0,0,0,0,0,0,0,0,0,0,236,0,0,0,236,0,0,0,
0,0,0,0,0,0,0,0,0,0,0,0,0,0,0,0,0,0,0,0,0,7,8,9,8,9,9,8,9,8,9,8,
0,0,0,0,0,0,0,0,0,254,0,255,256,0,0,0,0,0,0,0,0,23,0,0,0,0,0,0,0,0,131,132,
0,0,0,0,0,0,0,0,0,93,0,95,96,0,0,0,0,0,0,0,0,0,0,0,0,0,0,0,0,0,147,148,
0,0,0,0,0,0,0,0,0,0,0,0,0,0,0,0,0,0,0,0,0,0,0,0,0,0,0,0,0,131,132,130,
0,0,0,0,0,0,0,0,0,0,0,0,0,0,0,0,0,0,0,0,0,0,0,0,0,0,0,0,0,147,148,146,
0,0,0,0,0,0,0,0,0,0,0,0,0,0,0,0,0,0,0,0,0,0,0,0,0,0,0,0,0,0,131,132,
0,0,0,0,0,0,0,0,0,0,0,0,0,0,0,0,0,0,0,0,0,0,0,0,0,0,0,0,0,0,147,148,
0,0,0,0,0,0,0,0,0,0,0,0,0,0,0,0,0,0,0,0,0,0,0,0,0,0,0,0,0,131,132,145,
0,0,0,0,0,0,0,0,0,0,0,0,0,0,0,0,0,0,0,0,0,254,0,255,256,0,0,0,0,147,148,129,
0,0,0,0,0,0,0,0,0,0,0,0,0,0,0,0,0,0,0,0,0,93,0,95,96,0,0,0,0,0,131,132,
0,0,0,0,0,0,0,0,0,0,0,0,0,0,0,0,0,0,0,0,0,0,0,0,0,0,0,0,0,0,147,148,
233,232,233,232,233,232,233,215,0,0,0,0,0,0,0,0,0,0,0,0,0,0,0,0,0,0,0,0,0,0,0,232,
248,249,248,249,248,249,248,214,215,0,0,0,0,0,0,0,0,0,0,0,0,0,0,0,0,0,0,0,0,0,0,248,
0,0,0,0,0,0,0,230,0,0,0,0,0,0,0,0,0,0,0,0,0,0,0,0,0,0,0,0,0,25,24,25,
0,0,0,0,0,0,0,0,0,0,0,0,0,0,0,0,0,0,0,0,0,0,0,0,0,0,0,0,40,41,40,41
</data>
 </layer>
 <objectgroup id="6" name="EVENTS">
  <object id="1" name="LEFT" type="GameEvent" x="0" y="80" width="16" height="368">
   <properties>
    <property name="Pages" type="list">
     <item type="class" propertytype="EventPage">
      <properties>
       <property name="command" type="class" propertytype="EventCommand">
        <properties>
         <property name="mapName" value="SEAWRLD"/>
         <property name="tileX" type="int" value="17"/>
         <property name="tiley" type="int" value="8"/>
         <property name="type" value="TRANSFER"/>
        </properties>
       </property>
       <property name="switchCondition" type="int" value="0"/>
       <property name="trigger" value="PLAYER_TOUCH"/>
       <property name="variableCondition" type="int" value="0"/>
       <property name="variableThreshold" type="int" value="0"/>
      </properties>
     </item>
    </property>
   </properties>
  </object>
  <object id="7" name="STEP" type="GameEvent" x="32" y="96" width="64" height="32">
   <properties>
    <property name="Pages" type="list">
     <item type="class" propertytype="EventPage">
      <properties>
       <property name="command" type="class" propertytype="EventCommand">
        <properties>
         <property name="sfxName" value="STEP"/>
         <property name="type" value="PLAY_SFX"/>
        </properties>
       </property>
       <property name="trigger" value="PLAYER_TOUCH"/>
      </properties>
     </item>
    </property>
   </properties>
  </object>
 </objectgroup>
 <layer id="4" name="OL1" width="32" height="32">
  <data encoding="csv">
0,0,0,0,0,0,0,0,0,0,0,0,0,0,0,0,0,0,0,0,0,0,0,0,0,0,0,0,0,0,0,0,
0,0,0,0,0,0,0,0,0,0,0,0,0,0,0,0,0,0,0,0,0,0,0,0,0,0,0,0,0,0,0,0,
0,0,0,0,0,0,0,0,0,0,0,0,0,0,0,0,0,0,0,0,0,0,0,0,0,0,0,0,0,0,0,0,
0,0,0,0,0,0,0,0,0,0,0,0,0,0,0,0,0,0,0,0,0,0,0,0,0,0,0,0,0,0,0,0,
0,0,0,0,0,0,0,0,0,0,0,0,0,0,0,0,0,0,0,0,0,0,0,0,0,0,0,0,0,0,0,0,
0,0,0,0,0,0,0,0,0,0,0,0,0,0,0,0,0,0,0,0,0,0,0,0,0,0,0,0,0,0,0,0,
0,0,0,0,0,0,0,0,0,0,0,0,0,0,0,0,0,0,0,0,0,0,0,0,0,0,0,0,0,0,0,0,
0,0,0,0,0,0,0,0,0,0,0,0,0,0,0,0,0,0,0,0,0,0,0,0,0,0,0,0,0,0,0,0,
0,0,0,0,0,0,0,0,0,0,0,0,0,0,0,0,0,0,0,0,0,0,0,0,0,0,0,0,0,0,0,0,
0,0,0,0,0,0,0,0,0,0,0,0,0,0,0,0,0,0,0,0,0,0,0,0,0,0,0,0,0,0,0,0,
0,0,0,0,0,0,0,0,0,0,0,0,0,0,0,0,0,0,0,0,0,0,0,0,0,0,0,0,0,0,0,0,
0,0,0,0,0,0,0,0,0,0,0,0,0,0,0,0,0,0,0,0,0,0,0,0,0,0,0,0,0,0,0,0,
0,0,0,0,0,0,0,0,0,0,0,0,0,0,0,0,0,0,0,0,0,0,0,0,0,0,0,0,0,0,0,0,
0,0,0,0,0,0,0,0,0,0,0,0,0,0,0,0,0,0,0,0,0,0,0,0,0,0,0,0,0,0,0,0,
0,0,0,0,0,0,0,0,12,13,14,15,16,0,0,0,0,0,0,0,0,0,0,0,0,0,0,0,0,0,0,0,
0,0,0,0,0,0,0,0,28,29,30,31,32,0,0,0,0,0,0,0,0,0,0,0,0,0,0,0,0,0,0,0,
0,0,0,0,0,0,0,0,44,45,46,47,48,0,0,0,0,0,0,0,0,0,0,0,0,0,0,0,0,0,0,0,
0,0,0,0,0,0,0,0,60,61,62,63,64,0,0,0,0,0,0,0,0,0,0,0,0,0,0,0,0,0,0,0,
0,0,0,0,0,0,0,0,76,77,78,79,80,0,0,0,0,0,0,0,0,0,0,0,0,0,0,0,0,0,0,0,
0,0,0,0,0,0,0,0,92,0,0,0,0,0,0,0,0,0,0,0,0,0,0,0,0,0,0,0,0,0,0,0,
0,0,0,0,0,0,0,0,0,0,0,0,0,0,0,0,0,0,0,0,0,0,0,0,0,0,0,0,0,0,0,0,
0,0,0,0,0,0,0,0,0,0,0,0,0,0,0,0,0,0,0,0,12,13,14,15,16,0,0,0,0,0,0,0,
0,0,0,0,0,0,0,0,0,0,0,0,0,0,0,0,0,0,0,0,28,29,30,31,32,0,0,0,0,0,0,0,
0,0,0,0,0,0,0,0,0,0,0,0,0,0,0,0,0,0,0,0,44,45,46,47,48,0,0,0,0,0,0,0,
0,0,0,0,0,0,0,0,0,0,0,0,0,0,0,0,0,0,0,0,60,61,62,63,64,0,0,0,0,0,0,0,
0,0,0,0,0,0,0,0,0,0,0,0,0,0,0,0,0,0,0,0,76,77,78,79,80,0,0,0,0,0,0,0,
0,0,0,0,0,0,0,0,0,0,0,0,0,0,0,0,0,0,0,0,92,0,0,0,0,0,0,0,0,0,0,0,
0,0,0,0,0,0,0,0,0,0,0,0,0,0,0,0,0,0,0,0,0,0,0,0,0,0,0,0,0,0,0,0,
0,0,0,0,0,0,0,0,0,0,0,0,0,0,0,0,0,0,0,0,0,0,0,0,0,0,0,0,0,0,0,0,
0,0,0,0,0,0,0,0,0,0,0,0,0,0,0,0,0,0,0,0,0,0,0,0,0,0,0,0,0,0,0,0,
0,0,0,0,0,0,0,0,0,0,0,0,0,0,0,0,0,0,0,0,0,0,0,0,0,0,0,0,0,0,0,0,
0,0,0,0,0,0,0,0,0,0,0,0,0,0,0,0,0,0,0,0,0,0,0,0,0,0,0,0,0,0,0,0
</data>
 </layer>
 <layer id="5" name="COL" width="32" height="32" opacity="0.6">
  <data encoding="csv">
0,0,0,0,0,0,0,0,0,0,0,0,0,0,0,0,0,0,0,0,0,0,0,0,0,0,0,0,0,0,0,0,
0,0,0,0,0,0,0,0,0,0,0,0,0,0,0,0,0,0,0,0,0,0,0,0,0,0,0,0,0,0,0,0,
0,251,251,251,251,0,0,0,0,0,0,0,0,0,0,0,0,0,0,0,0,0,0,0,0,0,0,0,0,0,0,0,
0,251,0,0,251,251,251,251,251,251,251,251,0,0,0,0,0,251,251,251,251,251,251,251,0,0,0,0,0,0,0,0,
251,251,0,0,0,0,0,0,0,0,0,0,251,0,0,0,0,251,0,0,0,0,0,251,0,0,0,0,0,0,0,0,
0,0,0,0,0,0,0,0,0,0,0,0,0,251,251,251,251,0,0,0,0,0,0,251,0,0,0,0,0,0,0,0,
0,0,0,0,0,0,0,0,0,0,0,0,0,0,0,0,0,0,0,0,0,0,0,251,0,0,0,0,0,0,0,0,
0,0,0,0,0,0,0,0,0,0,0,0,0,0,0,0,0,0,0,0,0,0,0,251,0,0,0,0,0,0,0,0,
0,0,0,0,0,0,0,0,0,0,0,0,0,0,0,0,0,0,0,0,0,0,0,251,0,0,0,0,0,0,0,0,
0,0,0,0,0,0,0,0,0,0,0,0,0,0,0,0,0,0,0,0,0,0,0,251,0,0,0,0,0,0,0,0,
0,0,0,0,0,0,0,0,0,0,0,0,0,0,0,0,0,0,0,0,0,0,0,251,0,0,0,0,0,0,0,0,
0,0,0,0,0,0,0,0,0,0,0,0,0,0,0,0,0,0,0,0,251,251,251,0,0,0,0,0,0,0,0,0,
0,0,0,0,0,0,0,0,0,0,0,0,0,0,0,0,0,0,0,0,251,0,0,0,0,0,0,0,0,0,0,0,
0,0,0,0,0,0,0,0,0,0,0,0,0,0,0,0,0,0,0,0,251,0,0,0,0,0,0,0,0,0,0,0,
0,0,0,0,0,0,0,0,0,0,0,0,0,0,0,0,0,0,0,0,251,0,0,0,0,0,0,0,0,0,0,0,
0,0,0,0,0,0,0,0,0,0,0,0,0,0,0,0,0,0,0,0,251,0,0,0,0,0,0,0,0,0,0,0,
0,0,0,0,0,0,0,0,0,0,0,0,0,0,0,0,0,0,0,0,251,0,0,0,0,0,0,0,0,0,0,0,
0,0,0,0,0,0,0,0,0,0,0,0,0,0,0,0,0,0,0,0,251,251,251,251,251,251,251,251,251,251,251,251,
0,0,0,0,0,0,0,0,0,0,251,0,0,0,0,0,0,0,0,0,0,0,0,0,0,0,0,0,0,0,251,0,
0,0,0,0,0,0,0,0,0,0,251,0,0,0,0,0,0,0,0,0,0,0,0,0,0,0,0,0,0,0,251,0,
0,0,0,0,0,0,0,0,0,251,251,251,0,0,0,0,0,0,0,0,0,0,0,0,0,0,0,0,0,251,0,0,
0,0,0,0,0,0,0,0,0,0,0,0,0,0,0,0,0,0,0,0,0,0,0,0,0,0,0,0,0,251,0,0,
0,0,0,0,0,0,0,0,0,0,0,0,0,0,0,0,0,0,0,0,0,0,0,0,0,0,0,0,0,0,251,0,
0,0,0,0,0,0,0,0,0,0,0,0,0,0,0,0,0,0,0,0,0,0,0,0,0,0,0,0,0,0,251,0,
0,0,0,0,0,0,0,0,0,0,0,0,0,0,0,0,0,0,0,0,0,0,0,0,0,0,0,0,0,251,251,0,
0,0,0,0,0,0,0,0,0,0,0,0,0,0,0,0,0,0,0,0,0,0,251,0,0,0,0,0,0,251,251,0,
0,0,0,0,0,0,0,0,0,0,0,0,0,0,0,0,0,0,0,0,0,0,251,0,0,0,0,0,0,0,251,251,
0,0,0,0,0,0,0,0,0,0,0,0,0,0,0,0,0,0,0,0,0,251,251,251,0,0,0,0,0,0,251,251,
251,251,251,251,251,251,251,0,0,0,0,0,0,0,0,0,0,0,0,0,0,0,0,0,0,0,0,0,0,251,251,251,
0,0,0,0,0,0,0,251,0,0,0,0,0,0,0,0,0,0,0,0,0,0,0,0,0,0,0,0,251,0,0,0,
0,0,0,0,0,0,0,0,251,251,251,251,251,251,251,251,251,251,251,251,251,251,251,251,251,251,251,251,0,0,0,0,
0,0,0,0,0,0,0,0,0,0,0,0,0,0,0,0,0,0,0,0,0,0,0,0,0,0,0,0,0,0,0,0
</data>
 </layer>
</map>
