<?xml version="1.0" encoding="UTF-8"?>
<map version="1.10" tiledversion="1.12.2" orientation="orthogonal" renderorder="right-down" width="20" height="15" tilewidth="16" tileheight="16" infinite="0" nextlayerid="6" nextobjectid="2">
 <tileset firstgid="1" source="OVERWRLD.tsx"/>
 <layer id="1" name="BL1" width="20" height="15">
  <data encoding="csv">
24,25,24,25,24,25,24,25,24,25,24,25,24,25,24,25,24,25,24,25,
40,41,40,41,40,41,40,41,40,41,40,41,40,41,40,41,40,41,40,41,
24,25,24,25,24,25,24,25,24,25,24,25,24,25,24,25,24,25,24,25,
40,41,40,41,40,41,40,41,40,41,40,41,40,41,40,41,40,41,40,41,
24,25,24,25,24,25,24,25,24,25,24,25,24,25,24,25,24,25,24,25,
40,41,40,41,40,41,40,41,40,41,40,41,40,41,40,41,40,41,40,41,
24,25,24,25,24,25,24,25,24,25,24,25,24,25,24,25,24,25,24,25,
40,41,40,41,40,41,40,41,40,41,40,41,40,41,40,41,40,41,40,41,
24,25,24,25,24,25,24,25,24,25,24,25,24,25,24,25,24,25,24,25,
40,41,40,41,40,41,40,41,40,41,40,41,40,41,40,41,40,41,40,41,
24,25,24,25,24,25,24,25,24,25,24,25,24,25,24,25,24,25,24,25,
40,41,40,41,40,41,40,41,40,41,40,41,40,41,40,41,40,41,40,41,
24,25,24,25,24,25,24,25,24,25,24,25,24,25,24,25,24,25,24,25,
40,41,40,41,40,41,40,41,40,41,40,41,40,41,40,41,40,41,40,41,
24,25,24,25,24,25,24,25,24,25,24,25,24,25,24,25,24,25,24,25
</data>
 </layer>
 <layer id="2" name="BL2" width="20" height="15">
  <data encoding="csv">
0,0,0,0,0,0,0,0,0,0,0,0,0,0,0,0,0,0,0,0,
0,0,0,0,0,0,0,0,0,0,0,0,0,0,0,0,0,0,0,0,
0,0,0,0,0,0,0,0,0,0,0,0,0,236,0,0,0,0,0,0,
0,0,0,0,0,0,0,0,0,0,0,0,220,220,220,0,0,0,0,0,
0,0,0,0,0,0,0,0,0,0,0,220,204,204,204,220,236,0,0,0,
0,0,0,0,0,0,0,0,0,0,236,7,8,9,8,9,8,9,8,9,
0,0,0,0,0,0,0,0,0,0,22,23,17,81,17,81,17,81,17,81,
0,0,0,0,0,0,0,0,0,0,38,81,33,17,33,17,33,17,33,17,
0,0,0,0,0,0,0,0,0,0,38,49,49,33,49,33,49,33,49,33,
0,0,0,0,0,0,0,0,0,0,38,33,244,245,65,49,65,49,65,49,
0,0,0,0,0,0,0,0,0,0,38,81,81,65,81,65,81,65,81,65,
0,0,0,0,0,0,0,0,0,0,54,55,17,81,17,81,17,81,17,81,
0,0,0,0,0,0,0,0,0,0,70,71,72,73,72,73,72,73,72,73,
0,0,0,0,0,0,0,0,0,0,86,87,88,89,88,89,88,89,88,89,
0,0,0,0,0,0,0,0,0,236,182,183,184,185,184,185,184,185,184,185
</data>
 </layer>
 <layer id="3" name="OL1" width="20" height="15">
  <data encoding="csv">
0,0,0,0,0,0,0,0,0,0,0,0,0,0,0,0,0,0,0,0,
0,0,0,0,0,0,0,0,0,0,0,0,0,0,0,0,0,0,0,0,
0,0,0,0,0,0,0,0,0,0,0,0,0,0,0,0,0,0,0,0,
0,0,0,0,0,0,0,0,0,0,0,0,0,0,0,0,0,0,0,0,
0,0,0,0,0,0,0,0,0,0,0,0,0,0,0,0,0,0,0,0,
0,0,0,0,0,0,0,0,0,0,0,0,0,0,0,0,0,0,0,0,
0,0,0,0,0,0,0,0,0,0,0,0,0,0,0,0,0,0,0,0,
0,0,0,0,0,0,0,0,0,0,0,0,0,0,0,0,0,0,0,0,
0,0,0,0,0,0,0,0,0,0,0,0,228,229,0,0,0,0,0,0,
0,0,0,0,0,0,0,0,0,0,0,0,0,0,0,0,0,0,0,0,
0,0,0,0,0,0,0,0,0,0,0,0,0,0,0,0,0,0,0,0,
0,0,0,0,0,0,0,0,0,0,0,0,0,0,0,0,0,0,0,0,
0,0,0,0,0,0,0,0,0,0,0,0,0,0,0,0,0,0,0,0,
0,0,0,0,0,0,0,0,0,0,0,0,0,0,0,0,0,0,0,0,
0,0,0,0,0,0,0,0,0,0,0,0,0,0,0,0,0,0,0,0
</data>
 </layer>
 <layer id="4" name="COL" width="20" height="15" opacity="0.65">
  <data encoding="csv">
0,0,0,0,0,0,0,0,0,0,0,0,0,0,0,0,0,0,0,0,
0,0,0,0,0,0,0,0,0,0,0,0,0,0,0,0,0,0,0,0,
0,0,0,0,0,0,0,0,0,0,0,0,0,0,0,0,0,0,0,0,
0,0,0,0,0,0,0,0,0,0,0,0,0,0,0,0,0,0,0,0,
0,0,0,0,0,0,0,0,0,0,0,0,0,0,0,0,0,0,0,0,
0,0,0,0,0,0,0,0,0,0,0,251,251,251,251,251,251,251,251,251,
0,0,0,0,0,0,0,0,0,0,251,0,0,0,0,0,0,0,0,0,
0,0,0,0,0,0,0,0,0,0,251,0,0,0,0,0,0,0,0,0,
0,0,0,0,0,0,0,0,0,0,251,0,0,0,0,0,0,0,0,0,
0,0,0,0,0,0,0,0,0,0,251,0,251,251,0,0,0,0,0,0,
0,0,0,0,0,0,0,0,0,0,251,0,0,0,0,0,0,0,0,0,
0,0,0,0,0,0,0,0,0,0,251,0,0,0,0,0,0,0,0,0,
0,0,0,0,0,0,0,0,0,0,0,251,251,251,251,251,251,251,251,251,
0,0,0,0,0,0,0,0,0,0,0,0,0,0,0,0,0,0,0,0,
0,0,0,0,0,0,0,0,0,0,0,0,0,0,0,0,0,0,0,0
</data>
 </layer>
 <objectgroup id="5" name="EVENTS">
  <object id="1" name="RIGHT" type="GameEvent" x="304" y="96" width="16" height="96">
   <properties>
    <property name="Pages" type="list">
     <item type="class" propertytype="EventPage">
      <properties>
       <property name="command" type="class" propertytype="EventCommand">
        <properties>
         <property name="mapName" value="OVERWRLD"/>
         <property name="tileX" type="int" value="1"/>
         <property name="tiley" type="int" value="7"/>
         <property name="type" value="TRANSFER"/>
        </properties>
       </property>
       <property name="switchCondition" type="int" value="0"/>
       <property name="trigger" value="PLAYER_TOUCH"/>
       <property name="variableCondition" type="int" value="0"/>
       <property name="variableThreshold" type="int" value="0"/>
      </properties>
     </item>
    </property>
   </properties>
  </object>
 </objectgroup>
</map>
